src/styles/icons/degrees.svg

<svg width="24" height="24" viewBox="0 0 24 24" fill="none" xmlns="http://www.w3.org/2000/svg">
<mask id="mask0_2215_11275" style="mask-type:alpha" maskUnits="userSpaceOnUse" x="0" y="0" width="24" height="24">
<rect width="24" height="24" fill="#D9D9D9"/>
</mask>
<g mask="url(#mask0_2215_11275)">
<path d="M12 11.8L10.3672 13.0615C10.2737 13.132 10.1817 13.1346 10.0912 13.0693C10.0009 13.0039 9.97242 12.9192 10.0058 12.8152L10.627 10.773L8.973 9.50775C8.88967 9.43725 8.86633 9.351 8.903 9.249C8.9395 9.14717 9.00967 9.09625 9.1135 9.09625H11.1578L11.7787 7.08475C11.8121 6.98075 11.8858 6.92875 12 6.92875C12.1142 6.92875 12.1879 6.98075 12.2213 7.08475L12.8422 9.09625H14.8712C14.9751 9.09625 15.0478 9.14717 15.0895 9.249C15.1312 9.351 15.1103 9.43725 15.027 9.50775L13.3577 10.773L13.9788 12.8152C14.0121 12.9192 13.9836 13.0039 13.8932 13.0693C13.8029 13.1346 13.7109 13.132 13.6173 13.0615L12 11.8ZM12 20.4807L7.68075 21.848C7.38592 21.9518 7.11542 21.9118 6.86925 21.7278C6.62308 21.5438 6.5 21.3012 6.5 21V15.073C5.86667 14.4115 5.375 13.6468 5.025 12.7788C4.675 11.9109 4.5 10.9847 4.5 10C4.5 7.90767 5.22692 6.13458 6.68075 4.68075C8.13458 3.22692 9.90767 2.5 12 2.5C14.0923 2.5 15.8654 3.22692 17.3193 4.68075C18.7731 6.13458 19.5 7.90767 19.5 10C19.5 10.9847 19.325 11.9109 18.975 12.7788C18.625 13.6468 18.1333 14.4115 17.5 15.073V21C17.5 21.3012 17.3769 21.5438 17.1307 21.7278C16.8846 21.9118 16.6141 21.9518 16.3193 21.848L12 20.4807ZM12 16C13.6667 16 15.0833 15.4167 16.25 14.25C17.4167 13.0833 18 11.6667 18 10C18 8.33333 17.4167 6.91667 16.25 5.75C15.0833 4.58333 13.6667 4 12 4C10.3333 4 8.91667 4.58333 7.75 5.75C6.58333 6.91667 6 8.33333 6 10C6 11.6667 6.58333 13.0833 7.75 14.25C8.91667 15.4167 10.3333 16 12 16ZM8 20.0345L12 18.9615L16 20.0345V16.3193C15.4295 16.6911 14.8052 16.9808 14.127 17.1885C13.4487 17.3962 12.7397 17.5 12 17.5C11.2603 17.5 10.5513 17.3962 9.873 17.1885C9.19483 16.9808 8.5705 16.6911 8 16.3193V20.0345Z" fill="CurrentColor"/>
</g>
</svg>

<svg xmlns="http://www.w3.org/2000/svg" viewBox="0 0 24 24">
<mask id="a" width="24" height="24" x="0" y="0" maskUnits="userSpaceOnUse" style="mask-type:alpha">
<path fill="currentcolor" d="M0 0h24v24H0z"/>
</mask><g mask="url(#a)">
<path fill="#DE93A0" fill-rule="evenodd" d="M11.037.012c3.24.162 5.82 2.423 7.775 5.012 1.878 2.485 3.078 5.482 2.46 8.536-.637 3.142-2.783 5.75-5.648 7.19-2.928 1.47-6.365 1.719-9.339.34-3.027-1.402-5.167-4.18-5.947-7.424-.792-3.293-.204-6.806 1.884-9.472C4.332 1.501 7.62-.159 11.037.012Z" clip-rule="evenodd" opacity=".4"/>
<path fill="currentcolor" d="m12 11.8-1.633 1.261c-.093.071-.185.074-.276.008-.09-.065-.119-.15-.085-.254l.621-2.042-1.654-1.265a.216.216 0 0 1-.07-.259c.037-.102.107-.153.21-.153h2.045l.62-2.011c.034-.104.108-.156.222-.156s.188.052.221.156l.621 2.011h2.03c.103 0 .176.051.217.153.042.102.021.188-.062.259l-1.67 1.265.622 2.042c.033.104.005.189-.086.254-.09.066-.182.063-.276-.008L12 11.8Zm0 8.68-4.32 1.368a.823.823 0 0 1-.81-.12A.866.866 0 0 1 6.5 21v-5.927a7.15 7.15 0 0 1-1.475-2.294A7.359 7.359 0 0 1 4.5 10c0-2.092.727-3.865 2.18-5.32C8.136 3.228 9.909 2.5 12 2.5s3.865.727 5.32 2.18C18.772 6.136 19.5 7.909 19.5 10c0 .985-.175 1.91-.525 2.779a7.15 7.15 0 0 1-1.475 2.294V21a.866.866 0 0 1-.37.728.823.823 0 0 1-.81.12L12 20.481ZM12 16c1.667 0 3.083-.583 4.25-1.75C17.417 13.083 18 11.667 18 10c0-1.667-.583-3.083-1.75-4.25C15.083 4.583 13.667 4 12 4c-1.667 0-3.083.583-4.25 1.75C6.583 6.917 6 8.333 6 10c0 1.667.583 3.083 1.75 4.25C8.917 15.417 10.333 16 12 16Zm-4 4.035 4-1.073 4 1.073v-3.716a7.354 7.354 0 0 1-1.873.87A7.224 7.224 0 0 1 12 17.5c-.74 0-1.449-.104-2.127-.311A7.355 7.355 0 0 1 8 16.319v3.716Z"/></g></svg>
